X:1
T: Miss Charlotte Stewart
C:
R:Reel
Q: 232
K:Bm
M:4/4
L:1/8
|:D|B,C DE F3B|AF ED C1/4D1/4E3/2 CA,|B,C DE F3B|AF EC B,B, B,D|
B,C DE F3B|AF ED C1/4D1/4E3/2 CA,|B,C DE F3B|AF EC B,B, B,c|
Bc de fB dB|eA cA ae cA|Bc de fB dB|ec Ac BB Bc|
Bc de fB dB|Ac e^g ae cA|Bc de fa ec|Ac ac BB B:|
